images/50514080.svg

<?xml version="1.0" encoding="UTF-8"?>
<svg xmlns="http://www.w3.org/2000/svg" xmlns:xlink="http://www.w3.org/1999/xlink" width="300pt" height="300pt" viewBox="0 0 300 300" version="1.1">
<defs>
<g>
<symbol overflow="visible" id="glyph0-0">
<path style="stroke:none;" d="M 0.453125 1.59375 L 0.453125 -6.34375 L 4.953125 -6.34375 L 4.953125 1.59375 Z M 0.953125 1.09375 L 4.453125 1.09375 L 4.453125 -5.84375 L 0.953125 -5.84375 Z M 0.953125 1.09375 "/>
</symbol>
<symbol overflow="visible" id="glyph0-1">
<path style="stroke:none;" d="M 0.890625 -6.5625 L 4.65625 -6.5625 L 4.65625 -5.8125 L 1.765625 -5.8125 L 1.765625 -3.875 L 4.375 -3.875 L 4.375 -3.140625 L 1.765625 -3.140625 L 1.765625 0 L 0.890625 0 Z M 0.890625 -6.5625 "/>
</symbol>
<symbol overflow="visible" id="glyph0-2">
<path style="stroke:none;" d="M 0.890625 -6.5625 L 2.078125 -6.5625 L 4.984375 -1.078125 L 4.984375 -6.5625 L 5.84375 -6.5625 L 5.84375 0 L 4.65625 0 L 1.75 -5.484375 L 1.75 0 L 0.890625 0 Z M 0.890625 -6.5625 "/>
</symbol>
<symbol overflow="visible" id="glyph0-3">
<path style="stroke:none;" d="M 3.546875 -5.953125 C 2.898438 -5.953125 2.382812 -5.710938 2 -5.234375 C 1.625 -4.753906 1.4375 -4.101562 1.4375 -3.28125 C 1.4375 -2.445312 1.625 -1.789062 2 -1.3125 C 2.382812 -0.832031 2.898438 -0.59375 3.546875 -0.59375 C 4.191406 -0.59375 4.703125 -0.832031 5.078125 -1.3125 C 5.453125 -1.789062 5.640625 -2.445312 5.640625 -3.28125 C 5.640625 -4.101562 5.453125 -4.753906 5.078125 -5.234375 C 4.703125 -5.710938 4.191406 -5.953125 3.546875 -5.953125 Z M 3.546875 -6.6875 C 4.460938 -6.6875 5.195312 -6.375 5.75 -5.75 C 6.300781 -5.132812 6.578125 -4.3125 6.578125 -3.28125 C 6.578125 -2.238281 6.300781 -1.410156 5.75 -0.796875 C 5.195312 -0.179688 4.460938 0.125 3.546875 0.125 C 2.617188 0.125 1.878906 -0.179688 1.328125 -0.796875 C 0.773438 -1.410156 0.5 -2.238281 0.5 -3.28125 C 0.5 -4.3125 0.773438 -5.132812 1.328125 -5.75 C 1.878906 -6.375 2.617188 -6.6875 3.546875 -6.6875 Z M 3.546875 -6.6875 "/>
</symbol>
<symbol overflow="visible" id="glyph0-4">
<path style="stroke:none;" d="M 0.890625 -6.5625 L 1.765625 -6.5625 L 1.765625 -3.875 L 5 -3.875 L 5 -6.5625 L 5.890625 -6.5625 L 5.890625 0 L 5 0 L 5 -3.125 L 1.765625 -3.125 L 1.765625 0 L 0.890625 0 Z M 0.890625 -6.5625 "/>
</symbol>
</g>
</defs>
<g id="surface15181">
<rect x="0" y="0" width="300" height="300" style="fill:rgb(100%,100%,100%);fill-opacity:1;stroke:none;"/>
<path style="fill:none;stroke-width:1.2;stroke-linecap:butt;stroke-linejoin:miter;stroke:rgb(20%,80%,80%);stroke-opacity:1;stroke-miterlimit:10;" d="M 264.75 156.414062 L 254.769531 151.554688 "/>
<path style="fill:none;stroke-width:1.2;stroke-linecap:butt;stroke-linejoin:miter;stroke:rgb(0%,0%,0%);stroke-opacity:1;stroke-miterlimit:10;" d="M 254.769531 151.554688 L 244.789062 146.695312 "/>
<path style=" stroke:none;fill-rule:nonzero;fill:rgb(100%,100%,100%);fill-opacity:1;" d="M 261.75 150.914062 L 267.75 150.914062 L 267.75 161.914062 L 261.75 161.914062 Z M 261.75 150.914062 "/>
<g style="fill:rgb(20%,80%,80%);fill-opacity:1;">
  <use xlink:href="#glyph0-1" x="261.75" y="159.577148"/>
</g>
<path style="fill:none;stroke-width:1.2;stroke-linecap:butt;stroke-linejoin:miter;stroke:rgb(0%,0%,0%);stroke-opacity:1;stroke-miterlimit:10;" d="M 244.789062 146.695312 L 226.394531 159.121094 "/>
<path style="fill:none;stroke-width:1.2;stroke-linecap:butt;stroke-linejoin:miter;stroke:rgb(0%,0%,0%);stroke-opacity:1;stroke-miterlimit:10;" d="M 240.027344 143.609375 L 225.308594 153.550781 "/>
<path style="fill:none;stroke-width:1.2;stroke-linecap:butt;stroke-linejoin:miter;stroke:rgb(0%,0%,0%);stroke-opacity:1;stroke-miterlimit:10;" d="M 243.226562 124.546875 L 244.789062 146.695312 "/>
<path style="fill:none;stroke-width:1.2;stroke-linecap:butt;stroke-linejoin:miter;stroke:rgb(0%,0%,0%);stroke-opacity:1;stroke-miterlimit:10;" d="M 226.394531 159.121094 L 206.433594 149.402344 "/>
<path style="fill:none;stroke-width:1.2;stroke-linecap:butt;stroke-linejoin:miter;stroke:rgb(0%,0%,0%);stroke-opacity:1;stroke-miterlimit:10;" d="M 206.433594 149.402344 L 197.234375 155.617188 "/>
<path style="fill:none;stroke-width:1.2;stroke-linecap:butt;stroke-linejoin:miter;stroke:rgb(0%,0%,100%);stroke-opacity:1;stroke-miterlimit:10;" d="M 197.234375 155.617188 L 188.035156 161.828125 "/>
<path style="fill:none;stroke-width:1.2;stroke-linecap:butt;stroke-linejoin:miter;stroke:rgb(0%,0%,0%);stroke-opacity:1;stroke-miterlimit:10;" d="M 206.433594 149.402344 L 204.867188 127.257812 "/>
<path style="fill:none;stroke-width:1.2;stroke-linecap:butt;stroke-linejoin:miter;stroke:rgb(0%,0%,0%);stroke-opacity:1;stroke-miterlimit:10;" d="M 211.488281 146.820312 L 210.234375 129.105469 "/>
<path style="fill:none;stroke-width:1.2;stroke-linecap:butt;stroke-linejoin:miter;stroke:rgb(0%,0%,100%);stroke-opacity:1;stroke-miterlimit:10;" d="M 188.035156 161.828125 L 187.277344 184.015625 "/>
<path style="fill:none;stroke-width:1.2;stroke-linecap:butt;stroke-linejoin:miter;stroke:rgb(0%,0%,0%);stroke-opacity:1;stroke-miterlimit:10;" d="M 167.167969 154.25 L 177.601562 158.039062 "/>
<path style="fill:none;stroke-width:1.2;stroke-linecap:butt;stroke-linejoin:miter;stroke:rgb(0%,0%,100%);stroke-opacity:1;stroke-miterlimit:10;" d="M 177.601562 158.039062 L 188.035156 161.828125 "/>
<path style=" stroke:none;fill-rule:nonzero;fill:rgb(100%,100%,100%);fill-opacity:1;" d="M 185.035156 156.328125 L 192.035156 156.328125 L 192.035156 167.328125 L 185.035156 167.328125 Z M 185.035156 156.328125 "/>
<g style="fill:rgb(0%,0%,100%);fill-opacity:1;">
  <use xlink:href="#glyph0-2" x="185.035156" y="164.991211"/>
</g>
<path style="fill:none;stroke-width:1.2;stroke-linecap:butt;stroke-linejoin:miter;stroke:rgb(0%,0%,100%);stroke-opacity:1;stroke-miterlimit:10;" d="M 187.277344 184.015625 L 176.609375 187.085938 "/>
<path style="fill:none;stroke-width:1.2;stroke-linecap:butt;stroke-linejoin:miter;stroke:rgb(0%,0%,0%);stroke-opacity:1;stroke-miterlimit:10;" d="M 176.609375 187.085938 L 165.941406 190.152344 "/>
<path style="fill:none;stroke-width:1.2;stroke-linecap:butt;stroke-linejoin:miter;stroke:rgb(0%,0%,100%);stroke-opacity:1;stroke-miterlimit:10;" d="M 183.699219 179.609375 L 175.164062 182.0625 "/>
<path style="fill:none;stroke-width:1.2;stroke-linecap:butt;stroke-linejoin:miter;stroke:rgb(0%,0%,0%);stroke-opacity:1;stroke-miterlimit:10;" d="M 175.164062 182.0625 L 166.628906 184.515625 "/>
<path style=" stroke:none;fill-rule:nonzero;fill:rgb(100%,100%,100%);fill-opacity:1;" d="M 184.277344 178.515625 L 191.277344 178.515625 L 191.277344 189.515625 L 184.277344 189.515625 Z M 184.277344 178.515625 "/>
<g style="fill:rgb(0%,0%,100%);fill-opacity:1;">
  <use xlink:href="#glyph0-2" x="184.277344" y="187.178711"/>
</g>
<path style="fill:none;stroke-width:1.2;stroke-linecap:butt;stroke-linejoin:miter;stroke:rgb(0%,0%,0%);stroke-opacity:1;stroke-miterlimit:10;" d="M 165.941406 190.152344 L 153.511719 171.753906 "/>
<path style="fill:none;stroke-width:1.2;stroke-linecap:butt;stroke-linejoin:miter;stroke:rgb(0%,0%,0%);stroke-opacity:1;stroke-miterlimit:10;" d="M 153.511719 171.753906 L 167.167969 154.25 "/>
<path style="fill:none;stroke-width:1.2;stroke-linecap:butt;stroke-linejoin:miter;stroke:rgb(0%,0%,0%);stroke-opacity:1;stroke-miterlimit:10;" d="M 150.761719 166.792969 L 161.683594 152.789062 "/>
<path style="fill:none;stroke-width:1.2;stroke-linecap:butt;stroke-linejoin:miter;stroke:rgb(0%,0%,0%);stroke-opacity:1;stroke-miterlimit:10;" d="M 131.527344 168.679688 L 153.511719 171.753906 "/>
<path style="fill:none;stroke-width:1.2;stroke-linecap:butt;stroke-linejoin:miter;stroke:rgb(0%,0%,0%);stroke-opacity:1;stroke-miterlimit:10;" d="M 167.167969 154.25 L 163.003906 143.960938 "/>
<path style="fill:none;stroke-width:1.2;stroke-linecap:butt;stroke-linejoin:miter;stroke:rgb(0%,0%,100%);stroke-opacity:1;stroke-miterlimit:10;" d="M 163.003906 143.960938 L 158.839844 133.671875 "/>
<path style="fill:none;stroke-width:1.2;stroke-linecap:butt;stroke-linejoin:miter;stroke:rgb(0%,0%,100%);stroke-opacity:1;stroke-miterlimit:10;" d="M 158.839844 133.671875 L 165.667969 124.921875 "/>
<path style="fill:none;stroke-width:1.2;stroke-linecap:butt;stroke-linejoin:miter;stroke:rgb(0%,0%,0%);stroke-opacity:1;stroke-miterlimit:10;" d="M 165.667969 124.921875 L 172.496094 116.167969 "/>
<path style="fill:none;stroke-width:1.2;stroke-linecap:butt;stroke-linejoin:miter;stroke:rgb(0%,0%,100%);stroke-opacity:1;stroke-miterlimit:10;" d="M 158.839844 133.671875 L 147.84375 132.136719 "/>
<path style="fill:none;stroke-width:1.2;stroke-linecap:butt;stroke-linejoin:miter;stroke:rgb(0%,0%,0%);stroke-opacity:1;stroke-miterlimit:10;" d="M 147.84375 132.136719 L 136.851562 130.597656 "/>
<path style=" stroke:none;fill-rule:nonzero;fill:rgb(100%,100%,100%);fill-opacity:1;" d="M 155.839844 128.171875 L 162.839844 128.171875 L 162.839844 139.171875 L 155.839844 139.171875 Z M 155.839844 128.171875 "/>
<g style="fill:rgb(0%,0%,100%);fill-opacity:1;">
  <use xlink:href="#glyph0-2" x="155.839844" y="136.834961"/>
</g>
<path style="fill:none;stroke-width:1.2;stroke-linecap:butt;stroke-linejoin:miter;stroke:rgb(0%,0%,0%);stroke-opacity:1;stroke-miterlimit:10;" d="M 139.273438 129.617188 L 135.109375 119.328125 "/>
<path style="fill:none;stroke-width:1.2;stroke-linecap:butt;stroke-linejoin:miter;stroke:rgb(100%,0%,0%);stroke-opacity:1;stroke-miterlimit:10;" d="M 135.109375 119.328125 L 130.941406 109.039062 "/>
<path style="fill:none;stroke-width:1.2;stroke-linecap:butt;stroke-linejoin:miter;stroke:rgb(0%,0%,0%);stroke-opacity:1;stroke-miterlimit:10;" d="M 134.429688 131.578125 L 130.265625 121.289062 "/>
<path style="fill:none;stroke-width:1.2;stroke-linecap:butt;stroke-linejoin:miter;stroke:rgb(100%,0%,0%);stroke-opacity:1;stroke-miterlimit:10;" d="M 130.265625 121.289062 L 126.101562 111 "/>
<path style="fill:none;stroke-width:1.2;stroke-linecap:butt;stroke-linejoin:miter;stroke:rgb(0%,0%,0%);stroke-opacity:1;stroke-miterlimit:10;" d="M 136.851562 130.597656 L 123.195312 148.101562 "/>
<path style=" stroke:none;fill-rule:nonzero;fill:rgb(100%,100%,100%);fill-opacity:1;" d="M 120.523438 104.519531 L 128.523438 104.519531 L 128.523438 115.519531 L 120.523438 115.519531 Z M 120.523438 104.519531 "/>
<g style="fill:rgb(100%,0%,0%);fill-opacity:1;">
  <use xlink:href="#glyph0-3" x="120.523438" y="113.182617"/>
</g>
<path style="fill:none;stroke-width:1.2;stroke-linecap:butt;stroke-linejoin:miter;stroke:rgb(0%,0%,0%);stroke-opacity:1;stroke-miterlimit:10;" d="M 123.195312 148.101562 L 131.527344 168.679688 "/>
<path style="fill:none;stroke-width:1.2;stroke-linecap:butt;stroke-linejoin:miter;stroke:rgb(0%,0%,0%);stroke-opacity:1;stroke-miterlimit:10;" d="M 128.871094 148.199219 L 135.535156 164.660156 "/>
<path style="fill:none;stroke-width:1.2;stroke-linecap:butt;stroke-linejoin:miter;stroke:rgb(0%,0%,0%);stroke-opacity:1;stroke-miterlimit:10;" d="M 131.527344 168.679688 L 124.699219 177.433594 "/>
<path style="fill:none;stroke-width:1.2;stroke-linecap:butt;stroke-linejoin:miter;stroke:rgb(0%,0%,100%);stroke-opacity:1;stroke-miterlimit:10;" d="M 124.699219 177.433594 L 117.871094 186.183594 "/>
<path style="fill:none;stroke-width:1.2;stroke-linecap:butt;stroke-linejoin:miter;stroke:rgb(0%,0%,100%);stroke-opacity:1;stroke-miterlimit:10;" d="M 117.871094 186.183594 L 106.878906 184.644531 "/>
<path style="fill:none;stroke-width:1.2;stroke-linecap:butt;stroke-linejoin:miter;stroke:rgb(0%,0%,0%);stroke-opacity:1;stroke-miterlimit:10;" d="M 106.878906 184.644531 L 95.882812 183.109375 "/>
<path style=" stroke:none;fill-rule:nonzero;fill:rgb(100%,100%,100%);fill-opacity:1;" d="M 110.871094 180.683594 L 124.871094 180.683594 L 124.871094 191.683594 L 110.871094 191.683594 Z M 110.871094 180.683594 "/>
<g style="fill:rgb(0%,0%,100%);fill-opacity:1;">
  <use xlink:href="#glyph0-2" x="110.871094" y="189.34668"/>
  <use xlink:href="#glyph0-4" x="117.848633" y="189.34668"/>
</g>
<path style="fill:none;stroke-width:1.2;stroke-linecap:butt;stroke-linejoin:miter;stroke:rgb(0%,0%,0%);stroke-opacity:1;stroke-miterlimit:10;" d="M 95.882812 183.109375 L 87.554688 162.53125 "/>
<path style="fill:none;stroke-width:1.2;stroke-linecap:butt;stroke-linejoin:miter;stroke:rgb(0%,0%,0%);stroke-opacity:1;stroke-miterlimit:10;" d="M 90.210938 183.011719 L 83.542969 166.546875 "/>
<path style="fill:none;stroke-width:1.2;stroke-linecap:butt;stroke-linejoin:miter;stroke:rgb(0%,0%,0%);stroke-opacity:1;stroke-miterlimit:10;" d="M 82.226562 200.613281 L 95.882812 183.109375 "/>
<path style="fill:none;stroke-width:1.2;stroke-linecap:butt;stroke-linejoin:miter;stroke:rgb(0%,0%,0%);stroke-opacity:1;stroke-miterlimit:10;" d="M 87.554688 162.53125 L 65.566406 159.457031 "/>
<path style="fill:none;stroke-width:1.2;stroke-linecap:butt;stroke-linejoin:miter;stroke:rgb(0%,0%,0%);stroke-opacity:1;stroke-miterlimit:10;" d="M 65.566406 159.457031 L 51.910156 176.960938 "/>
<path style="fill:none;stroke-width:1.2;stroke-linecap:butt;stroke-linejoin:miter;stroke:rgb(0%,0%,0%);stroke-opacity:1;stroke-miterlimit:10;" d="M 68.320312 164.417969 L 57.394531 178.421875 "/>
<path style="fill:none;stroke-width:1.2;stroke-linecap:butt;stroke-linejoin:miter;stroke:rgb(0%,0%,0%);stroke-opacity:1;stroke-miterlimit:10;" d="M 65.566406 159.457031 L 57.238281 138.878906 "/>
<path style="fill:none;stroke-width:1.2;stroke-linecap:butt;stroke-linejoin:miter;stroke:rgb(0%,0%,0%);stroke-opacity:1;stroke-miterlimit:10;" d="M 51.910156 176.960938 L 60.242188 197.539062 "/>
<path style="fill:none;stroke-width:1.2;stroke-linecap:butt;stroke-linejoin:miter;stroke:rgb(0%,0%,0%);stroke-opacity:1;stroke-miterlimit:10;" d="M 60.242188 197.539062 L 82.226562 200.613281 "/>
<path style="fill:none;stroke-width:1.2;stroke-linecap:butt;stroke-linejoin:miter;stroke:rgb(0%,0%,0%);stroke-opacity:1;stroke-miterlimit:10;" d="M 63.164062 192.671875 L 80.753906 195.132812 "/>
<path style="fill:none;stroke-width:1.2;stroke-linecap:butt;stroke-linejoin:miter;stroke:rgb(0%,0%,0%);stroke-opacity:1;stroke-miterlimit:10;" d="M 82.226562 200.613281 L 90.558594 221.191406 "/>
<path style="fill:none;stroke-width:1.2;stroke-linecap:butt;stroke-linejoin:miter;stroke:rgb(0%,0%,0%);stroke-opacity:1;stroke-miterlimit:10;" d="M 57.597656 136.292969 L 46.605469 134.753906 "/>
<path style="fill:none;stroke-width:1.2;stroke-linecap:butt;stroke-linejoin:miter;stroke:rgb(100%,0%,0%);stroke-opacity:1;stroke-miterlimit:10;" d="M 46.605469 134.753906 L 35.613281 133.214844 "/>
<path style="fill:none;stroke-width:1.2;stroke-linecap:butt;stroke-linejoin:miter;stroke:rgb(0%,0%,0%);stroke-opacity:1;stroke-miterlimit:10;" d="M 56.875 141.464844 L 45.882812 139.925781 "/>
<path style="fill:none;stroke-width:1.2;stroke-linecap:butt;stroke-linejoin:miter;stroke:rgb(100%,0%,0%);stroke-opacity:1;stroke-miterlimit:10;" d="M 45.882812 139.925781 L 34.886719 138.390625 "/>
<path style="fill:none;stroke-width:1.2;stroke-linecap:butt;stroke-linejoin:miter;stroke:rgb(0%,0%,0%);stroke-opacity:1;stroke-miterlimit:10;" d="M 57.238281 138.878906 L 64.066406 130.125 "/>
<path style="fill:none;stroke-width:1.2;stroke-linecap:butt;stroke-linejoin:miter;stroke:rgb(0%,0%,100%);stroke-opacity:1;stroke-miterlimit:10;" d="M 64.066406 130.125 L 70.890625 121.375 "/>
<path style=" stroke:none;fill-rule:nonzero;fill:rgb(100%,100%,100%);fill-opacity:1;" d="M 27.25 130.304688 L 35.25 130.304688 L 35.25 141.304688 L 27.25 141.304688 Z M 27.25 130.304688 "/>
<g style="fill:rgb(100%,0%,0%);fill-opacity:1;">
  <use xlink:href="#glyph0-3" x="27.25" y="138.967773"/>
</g>
<path style="fill:none;stroke-width:1.2;stroke-linecap:butt;stroke-linejoin:miter;stroke:rgb(0%,0%,100%);stroke-opacity:1;stroke-miterlimit:10;" d="M 70.890625 121.375 L 66.726562 111.085938 "/>
<path style="fill:none;stroke-width:1.2;stroke-linecap:butt;stroke-linejoin:miter;stroke:rgb(0%,0%,0%);stroke-opacity:1;stroke-miterlimit:10;" d="M 66.726562 111.085938 L 62.5625 100.796875 "/>
<path style=" stroke:none;fill-rule:nonzero;fill:rgb(100%,100%,100%);fill-opacity:1;" d="M 63.890625 115.875 L 77.890625 115.875 L 77.890625 126.875 L 63.890625 126.875 Z M 63.890625 115.875 "/>
<g style="fill:rgb(0%,0%,100%);fill-opacity:1;">
  <use xlink:href="#glyph0-2" x="63.890625" y="124.538086"/>
  <use xlink:href="#glyph0-4" x="70.868164" y="124.538086"/>
</g>
<path style="fill:none;stroke-width:1.2;stroke-linecap:butt;stroke-linejoin:miter;stroke:rgb(0%,0%,0%);stroke-opacity:1;stroke-miterlimit:10;" d="M 62.5625 100.796875 L 45.058594 87.140625 "/>
<path style="fill:none;stroke-width:1.2;stroke-linecap:butt;stroke-linejoin:miter;stroke:rgb(0%,0%,0%);stroke-opacity:1;stroke-miterlimit:10;" d="M 65.636719 78.808594 L 62.5625 100.796875 "/>
<path style="fill:none;stroke-width:1.2;stroke-linecap:butt;stroke-linejoin:miter;stroke:rgb(0%,0%,0%);stroke-opacity:1;stroke-miterlimit:10;" d="M 45.058594 87.140625 L 65.636719 78.808594 "/>
<path style="fill:none;stroke-width:1.2;stroke-linecap:butt;stroke-linejoin:miter;stroke:rgb(0%,0%,0%);stroke-opacity:1;stroke-miterlimit:10;" d="M 204.867188 127.257812 L 223.265625 114.832031 "/>
<path style="fill:none;stroke-width:1.2;stroke-linecap:butt;stroke-linejoin:miter;stroke:rgb(0%,0%,0%);stroke-opacity:1;stroke-miterlimit:10;" d="M 223.265625 114.832031 L 243.226562 124.546875 "/>
<path style="fill:none;stroke-width:1.2;stroke-linecap:butt;stroke-linejoin:miter;stroke:rgb(0%,0%,0%);stroke-opacity:1;stroke-miterlimit:10;" d="M 222.976562 120.5 L 238.941406 128.273438 "/>
</g>
</svg>

<svg xmlns="http://www.w3.org/2000/svg" xmlns:xlink="http://www.w3.org/1999/xlink" width="300pt" height="300pt" viewBox="0 0 300 300"><defs><symbol overflow="visible"><path d="M.453 1.594v-7.938h4.5v7.938zm.5-.5h3.5v-6.938h-3.5zm0 0"/></symbol><symbol overflow="visible" id="a"><path d="M.89-6.563h3.766v.75h-2.89v1.938h2.61v.734h-2.61V0H.89zm0 0"/></symbol><symbol overflow="visible" id="b"><path d="M.89-6.563H2.08l2.906 5.485v-5.484h.86V0H4.656L1.75-5.484V0H.89zm0 0"/></symbol><symbol overflow="visible" id="c"><path d="M3.547-5.953c-.65 0-1.164.242-1.547.72-.375.48-.563 1.13-.563 1.952 0 .835.188 1.49.563 1.967.383.48.898.72 1.547.72.644 0 1.156-.24 1.53-.72.376-.476.564-1.132.564-1.968 0-.822-.187-1.474-.562-1.954-.375-.477-.887-.72-1.53-.72zm0-.734c.914 0 1.648.312 2.203.937.55.617.828 1.438.828 2.47 0 1.042-.277 1.87-.828 2.483-.555.617-1.29.922-2.203.922-.93 0-1.668-.305-2.22-.922C.774-1.41.5-2.237.5-3.28c0-1.033.273-1.853.828-2.47.55-.625 1.29-.938 2.22-.938zm0 0"/></symbol><symbol overflow="visible" id="d"><path d="M.89-6.563h.876v2.688H5v-2.688h.89V0H5v-3.125H1.766V0H.89zm0 0"/></symbol></defs><g><path fill="#fff" d="M0 0h300v300H0z"/><path d="M264.75 156.414l-9.98-4.86" stroke-width="1.2" stroke="#3cc" stroke-miterlimit="10" fill="none"/><path d="M254.77 151.555l-9.98-4.86" stroke-width="1.2" stroke="#000" stroke-miterlimit="10" fill="none"/><path d="M261.75 150.914h6v11h-6zm0 0" fill="#fff"/><use xlink:href="#a" x="261.75" y="159.577" fill="#3cc"/><path d="M244.79 146.695l-18.395 12.426M240.027 143.61l-14.718 9.94M243.227 124.547l1.562 22.148M226.395 159.12l-19.96-9.718M206.434 149.402l-9.2 6.215" stroke-width="1.2" stroke="#000" stroke-miterlimit="10" fill="none"/><path d="M197.234 155.617l-9.2 6.21" stroke-width="1.2" stroke="#00f" stroke-miterlimit="10" fill="none"/><path d="M206.434 149.402l-1.567-22.144M211.488 146.82l-1.254-17.715" stroke-width="1.2" stroke="#000" stroke-miterlimit="10" fill="none"/><path d="M188.035 161.828l-.758 22.188" stroke-width="1.2" stroke="#00f" stroke-miterlimit="10" fill="none"/><path d="M167.168 154.25l10.434 3.79" stroke-width="1.2" stroke="#000" stroke-miterlimit="10" fill="none"/><path d="M177.602 158.04l10.433 3.788" stroke-width="1.2" stroke="#00f" stroke-miterlimit="10" fill="none"/><path d="M185.035 156.328h7v11h-7zm0 0" fill="#fff"/><use xlink:href="#b" x="185.035" y="164.991" fill="#00f"/><path d="M187.277 184.016l-10.668 3.07" stroke-width="1.2" stroke="#00f" stroke-miterlimit="10" fill="none"/><path d="M176.61 187.086l-10.67 3.066" stroke-width="1.2" stroke="#000" stroke-miterlimit="10" fill="none"/><path d="M183.7 179.61l-8.536 2.452" stroke-width="1.2" stroke="#00f" stroke-miterlimit="10" fill="none"/><path d="M175.164 182.063l-8.535 2.453" stroke-width="1.2" stroke="#000" stroke-miterlimit="10" fill="none"/><path d="M184.277 178.516h7v11h-7zm0 0" fill="#fff"/><use xlink:href="#b" x="184.277" y="187.179" fill="#00f"/><path d="M165.94 190.152l-12.428-18.398M153.512 171.754l13.656-17.504M150.762 166.793l10.922-14.004M131.527 168.68l21.985 3.074M167.168 154.25l-4.164-10.29" stroke-width="1.2" stroke="#000" stroke-miterlimit="10" fill="none"/><path d="M163.004 143.96l-4.164-10.288M158.84 133.672l6.828-8.75" stroke-width="1.2" stroke="#00f" stroke-miterlimit="10" fill="none"/><path d="M165.668 124.922l6.828-8.754" stroke-width="1.2" stroke="#000" stroke-miterlimit="10" fill="none"/><path d="M158.84 133.672l-10.996-1.535" stroke-width="1.2" stroke="#00f" stroke-miterlimit="10" fill="none"/><path d="M147.844 132.137l-10.992-1.54" stroke-width="1.2" stroke="#000" stroke-miterlimit="10" fill="none"/><path d="M155.84 128.172h7v11h-7zm0 0" fill="#fff"/><use xlink:href="#b" x="155.84" y="136.835" fill="#00f"/><path d="M139.273 129.617l-4.164-10.29" stroke-width="1.2" stroke="#000" stroke-miterlimit="10" fill="none"/><path d="M135.11 119.328l-4.17-10.29" stroke-width="1.2" stroke="#f00" stroke-miterlimit="10" fill="none"/><path d="M134.43 131.578l-4.164-10.29" stroke-width="1.2" stroke="#000" stroke-miterlimit="10" fill="none"/><path d="M130.266 121.29L126.102 111" stroke-width="1.2" stroke="#f00" stroke-miterlimit="10" fill="none"/><path d="M136.852 130.598l-13.657 17.504" stroke-width="1.2" stroke="#000" stroke-miterlimit="10" fill="none"/><path d="M120.523 104.52h8v11h-8zm0 0" fill="#fff"/><use xlink:href="#c" x="120.523" y="113.183" fill="#f00"/><path d="M123.195 148.102l8.332 20.578M128.87 148.2l6.665 16.46M131.527 168.68l-6.828 8.754" stroke-width="1.2" stroke="#000" stroke-miterlimit="10" fill="none"/><path d="M124.7 177.434l-6.83 8.75M117.87 186.184l-10.99-1.54" stroke-width="1.2" stroke="#00f" stroke-miterlimit="10" fill="none"/><path d="M106.88 184.645l-10.997-1.536" stroke-width="1.2" stroke="#000" stroke-miterlimit="10" fill="none"/><path d="M110.87 180.684h14v11h-14zm0 0" fill="#fff"/><g fill="#00f"><use xlink:href="#b" x="110.871" y="189.347"/><use xlink:href="#d" x="117.849" y="189.347"/></g><path d="M95.883 183.11l-8.328-20.58M90.21 183.012l-6.667-16.465M82.227 200.613l13.656-17.504M87.555 162.53l-21.99-3.073M65.566 159.457L51.91 176.96M68.32 164.418l-10.925 14.004M65.566 159.457l-8.328-20.578M51.91 176.96l8.332 20.58M60.242 197.54l21.985 3.073M63.164 192.672l17.59 2.46M82.227 200.613l8.332 20.578M57.598 136.293l-10.993-1.54" stroke-width="1.2" stroke="#000" stroke-miterlimit="10" fill="none"/><path d="M46.605 134.754l-10.992-1.54" stroke-width="1.2" stroke="#f00" stroke-miterlimit="10" fill="none"/><path d="M56.875 141.465l-10.992-1.54" stroke-width="1.2" stroke="#000" stroke-miterlimit="10" fill="none"/><path d="M45.883 139.926l-10.996-1.535" stroke-width="1.2" stroke="#f00" stroke-miterlimit="10" fill="none"/><path d="M57.238 138.88l6.828-8.755" stroke-width="1.2" stroke="#000" stroke-miterlimit="10" fill="none"/><path d="M64.066 130.125l6.825-8.75" stroke-width="1.2" stroke="#00f" stroke-miterlimit="10" fill="none"/><path d="M27.25 130.305h8v11h-8zm0 0" fill="#fff"/><use xlink:href="#c" x="27.25" y="138.968" fill="#f00"/><path d="M70.89 121.375l-4.163-10.29" stroke-width="1.2" stroke="#00f" stroke-miterlimit="10" fill="none"/><path d="M66.727 111.086l-4.165-10.29" stroke-width="1.2" stroke="#000" stroke-miterlimit="10" fill="none"/><path d="M63.89 115.875h14v11h-14zm0 0" fill="#fff"/><g fill="#00f"><use xlink:href="#b" x="63.891" y="124.538"/><use xlink:href="#d" x="70.868" y="124.538"/></g><path d="M62.563 100.797L45.058 87.14M65.637 78.81l-3.075 21.987M45.06 87.14l20.577-8.33M204.867 127.258l18.4-12.426M223.266 114.832l19.96 9.715M222.977 120.5l15.964 7.773" stroke-width="1.2" stroke="#000" stroke-miterlimit="10" fill="none"/></g></svg>
